X: 177
T:Life is all Chequered
% Nottingham Music Database
S:Jimmy MacKay, via EF
Y:AB
M:6/8
K:G
P:A
g|"G"dBB BAG|"G"dBB B2g|"G"dBB "D"BAB|"Em"GEE "D7"E2g|
"G"dBB BAG|"G"dBB BAG|"C"ABc "D"BAB|"Em"GEE E2:|
P:B
d|"G"gfg "D7"aga|"G"bge dBG|"G"gfg "D7"aga|"Em"bge "D7"e2g/2a/2|
"G"bgb "D"afa|"Em"gef gfe|"Am"ABc "D7"def|"G"gdB G2:|


